X:1
T:The Sabbath Chime
T:The Sabbath Chime
T:Hans Georg Nägeli (1773-1836)
T:F. A. Benson, 1872
T:Public Domain Courtesy of the Cyber Hymnal™
C:Hans Georg Nägeli (1773-1836)
Z:Public Domain
Z:Courtesy of the Cyber Hymnal™
%%score ( 1 2 ) ( 3 4 )
L:1/8
Q:1/4=86
M:4/8
K:E
V:1 treble 
V:2 treble 
V:3 bass 
V:4 bass 
V:1
 [EB][EB][EB][DF] | (GE) E2 | [EB][EB][EB][DF] | (GE) E2 | [DF][DF] ([EG]/[FA]/) ([GB]/[EG]/) | %5
w: 1.~Bright and bless- èd|morn- * ing,|How I love thy|dawn- * ing,|Hark! the sound- * ing *|
w: 2.~Wea- ry wan- derer|weep- * ing,|God the Fa- ther|seek- * ing,|Hi- ther, hi- * ther *|
w: 3.~While the tones are|peal- * ing,|In the tem- ple|kneel- * ing,|Join the Sab- * bath *|
 [DF]3 z | [FA][FA][DF][DF] | [EB]2 [EG]2 | [FA][FA][DF][DF] | [EB]2 [EG]2 | E[EF] (G/A/)[DF] | %11
w: bells;|Deep tones, is the|call- ing,|On the ear ’tis|fall- ing,|Love and peace * it|
w: come;|O’er the heart is|steal- ing|Love’s de- vot- ed|feel- ing,|To the heav’n- * ly|
w: chime.|Em- blem to us|giv- en,|Of the voice of|Hea- ven,|Mel- o- dy * di-|
 E3 z |] %12
w: tells.|
w: One.|
w: vine.|
V:2
 x4 | E2 E2 | x4 | E2 E2 | x4 | x4 | x4 | x4 | x4 | x4 | EF x2 | E3 x |] %12
V:3
 [E,G,][E,G,][B,,F,][B,,F,] | (E,G,) [E,G,]2 | [E,G,][E,G,][B,,F,][B,,F,] | (E,G,) [E,G,]2 | %4
 [B,,B,][B,,B,][E,B,][E,B,] | [B,,B,]3 z | [B,,B,][B,,B,]B,[A,B,] | [G,B,]2 [G,B,]2 | %8
 [B,,B,][B,,B,]B,[A,B,] | [G,B,]2 [E,B,]2 | [C,C][A,,C][B,,B,][B,,A,] | [E,G,]3 z |] %12
V:4
 x4 | E,2 x2 | x4 | E,2 x2 | x4 | x4 | x2 B, x | x4 | x2 B, x | x4 | x4 | x4 |] %12

